!! J.S. Bach "Giga" from Partita No. 2, for solo violin, BWV 1004.
!! From 'Neue Ausgabe Saemtlicher Werke' Serie VI: Kammermusikwerke,
!! Band 1 ('Werke fuer Violine') Baerenreiter Kassel (Basel) 1958; pp.33-34
!! This file has been error-checked using the double-entry method.
!! NOTE: The repeats at bar 20 and at the end of the work have been
!!       expanded in this encoding.
**kern
*M12/8
8a
=1
{8d
8f}
8a
{8dd
8ee}
8ff
8ee
{16gg
16ff
16ee
16dd}
{8cc#
8a}
8e
=2
{8c#
8e}
8a
{8ee
8ff}
8gg
8ff
{16aa
16gg
16ff
16ee}
{8dd
8a}
8f
=3
8d
16ff
16ee
16dd
16ff
16bb-
16aa
16gg
16ff
16ee
16dd
16cc
16dd
16ee
16dd
16cc
16ee
16aa
16gg
16ff
16ee
16dd
16cc
=4
16b-
16cc
16dd
16cc
16b-
16dd
16gg
16ff
16ee
16dd
16cc#
16bn
16a
16b
16cc#
16b
16a
16cc#
16ee
16dd
16cc#
16b
16a
16g
=5
16f
{16a
16g
16f
16e
16d}
8A
8dd
8cc#
8.d
16e
16f
16g
16a
16b-
16ccn
16dd
16ee
16ff
=6
16gg
16ee
16cc
16g
16e
16g
16cc
16g
16e
16c
16e
16g
16a
16g
16f
16g
16a
16b-
16cc
16dd
16ee
16ff
16gg
16aa
=7
{16bb-
16aa
16bb-}
16ddd
16ee
16gg
{16aa
16gg
16aa}
16ccc
16dd
16ff
{16gg
16ff
16gg}
16bb-
16cc
16ee
{16ff
16ee
16ff}
16aa
16gg
16ff
=8
16ee
16dd
16ee
16ff
16ee
16dd
16cc
16b-
16cc
16dd
16cc
16b-
{16a
16b-
16cc}
16ff
16cc
16a
{16f
16g
16a}
16cc
16a
16f
=9
{16d
16e-
16f}
16b-
16f
16d
{16B-
16c
16d}
16f
16d
16B-
16G
16B-
16d
16g
16b-
16dd
16gg
16bb-
16gg
16dd
16b-
16g
=10
{16en
16g
16cc}
16ee
16gg
16bb-
{16cc
16b-
16cc}
16bb-
16cc
16bb-
{16f
16a
16cc}
16ee
16ff
16aa
{16cc
16b-
16cc}
16aa
16cc
16aa
=11
{16e
16g
16cc}
16ee
16gg
16bb-
{16cc
16b-
16cc}
16bb-
16cc
16bb-
{16f
16a
16cc}
16ee
16ff
16aa
{16cc
16b-
16cc}
16aa
16cc
16aa
=12
{16b-
16dd
16ff}
16aa
16bb-
16ddd
{16ee
16dd
16ee}
16ddd
16ee
16ddd
{16a
16cc
16ee}
16gg
16aa
16ccc
{16dd
16cc
16dd}
16ccc
16dd
16ccc
=13
{16g
16b-
16dd}
16ff
16gg
16bb-
{16cc
16b-
16cc}
16bb-
16cc
16bb-
{16f
16a
16cc}
16ee
16ff
16aa
{16cc
16b-
16cc}
16aa
16ff
16dd
=14
16b-
16a
16b-
16cc
16dd
16b-
16g
16f
16g
16a
16b-
16g
16e
16d
16e
16f
16g
16e
16c
16e
16g
16cc
[8ee
=15
16ee]
{16b-
16a
16g
16f
16e
16d
16c#
16Bn
16A}
16g
16e
16f
16d
16f
16a
16dd
16cc#
16dd
16a
16dd
16ff
16bbn
16aa
=16
16bbn
{16ff
16ee
16dd
16ccn
16bn
16a
16g#
16f#
16e}
16dd
16b
16cc
16a
16cc
16ee
16aa
16gg#
{16aa
16bb
16ccc}
16gg#
16aa
16ccc
=17
{16ff
16ggn
16aa}
16ee
16ff
16aa
{16dd
16ee
16ff}
16cc#
16dd
16ff
8.g#
16a
16bn
16ccn
{16dd
16ee
16ff}
16dd
16bbn
16dd
=18
{16cc
16dd
16ee}
16cc
16aa
16cc
{16bn
16cc
16dd}
16b
16gg#
16b
{16cc
16dd
16ee}
16cc
16aa
16cc
{16dd
16ee
16ff}
16dd
16bbn
16dd
=19
{16cc
16dd
16ee}
16bn
16cc
16a
{16b
16cc
16dd}
16a
16b
16g#
16a
16A
16c#
16e
[8gn
16g]
16e
16c#
16A
16c#
16e
=20
16f
16d
16f
16a
16dd
16cc#
16dd
16a
16dd
16ff
16aa
16gg#
16aa
16ee
16cc#
16a
16e
16c#
4A
8a
=21
{8d
8f}
8a
{8dd
8ee}
8ff
8ee
{16gg
16ff
16ee
16dd}
{8cc#
8a}
8e
=22
{8c#
8e}
8a
{8ee
8ff}
8gg
8ff
{16aa
16gg
16ff
16ee}
{8dd
8a}
8f
=23
8d
16ff
16ee
16dd
16ff
16bb-
16aa
16gg
16ff
16ee
16dd
16cc
16dd
16ee
16dd
16cc
16ee
16aa
16gg
16ff
16ee
16dd
16cc
=24
16b-
16cc
16dd
16cc
16b-
16dd
16gg
16ff
16ee
16dd
16cc#
16bn
16a
16b
16cc#
16b
16a
16cc#
16ee
16dd
16cc#
16b
16a
16g
=25
16f
{16a
16g
16f
16e
16d}
8A
8dd
8cc#
8.d
16e
16f
16g
16a
16b-
16ccn
16dd
16ee
16ff
=26
16gg
16ee
16cc
16g
16e
16g
16cc
16g
16e
16c
16e
16g
16a
16g
16f
16g
16a
16b-
16cc
16dd
16ee
16ff
16gg
16aa
=27
{16bb-
16aa
16bb-}
16ddd
16ee
16gg
{16aa
16gg
16aa}
16ccc
16dd
16ff
{16gg
16ff
16gg}
16bb-
16cc
16ee
{16ff
16ee
16ff}
16aa
16gg
16ff
=28
16ee
16dd
16ee
16ff
16ee
16dd
16cc
16b-
16cc
16dd
16cc
16b-
{16a
16b-
16cc}
16ff
16cc
16a
{16f
16g
16a}
16cc
16a
16f
=29
{16d
16e-
16f}
16b-
16f
16d
{16B-
16c
16d}
16f
16d
16B-
16G
16B-
16d
16g
16b-
16dd
16gg
16bb-
16gg
16dd
16b-
16g
=30
{16en
16g
16cc}
16ee
16gg
16bb-
{16cc
16b-
16cc}
16bb-
16cc
16bb-
{16f
16a
16cc}
16ee
16ff
16aa
{16cc
16b-
16cc}
16aa
16cc
16aa
=31
{16e
16g
16cc}
16ee
16gg
16bb-
{16cc
16b-
16cc}
16bb-
16cc
16bb-
{16f
16a
16cc}
16ee
16ff
16aa
{16cc
16b-
16cc}
16aa
16cc
16aa
=32
{16b-
16dd
16ff}
16aa
16bb-
16ddd
{16ee
16dd
16ee}
16ddd
16ee
16ddd
{16a
16cc
16ee}
16gg
16aa
16ccc
{16dd
16cc
16dd}
16ccc
16dd
16ccc
=33
{16g
16b-
16dd}
16ff
16gg
16bb-
{16cc
16b-
16cc}
16bb-
16cc
16bb-
{16f
16a
16cc}
16ee
16ff
16aa
{16cc
16b-
16cc}
16aa
16ff
16dd
=34
16b-
16a
16b-
16cc
16dd
16b-
16g
16f
16g
16a
16b-
16g
16e
16d
16e
16f
16g
16e
16c
16e
16g
16cc
[8ee
=35
16ee]
{16b-
16a
16g
16f
16e
16d
16c#
16Bn
16A}
16g
16e
16f
16d
16f
16a
16dd
16cc#
16dd
16a
16dd
16ff
16bbn
16aa
=36
16bbn
{16ff
16ee
16dd
16ccn
16bn
16a
16g#
16f#
16e}
16dd
16b
16cc
16a
16cc
16ee
16aa
16gg#
{16aa
16bb
16ccc}
16gg#
16aa
16ccc
=37
{16ff
16ggn
16aa}
16ee
16ff
16aa
{16dd
16ee
16ff}
16cc#
16dd
16ff
8.g#
16a
16bn
16ccn
{16dd
16ee
16ff}
16dd
16bbn
16dd
=38
{16cc
16dd
16ee}
16cc
16aa
16cc
{16bn
16cc
16dd}
16b
16gg#
16b
{16cc
16dd
16ee}
16cc
16aa
16cc
{16dd
16ee
16ff}
16dd
16bbn
16dd
=39
{16cc
16dd
16ee}
16bn
16cc
16a
{16b
16cc
16dd}
16a
16b
16g#
16a
16A
16c#
16e
[8gn
16g]
16e
16c#
16A
16c#
16e
=40
16f
16d
16f
16a
16dd
16cc#
16dd
16a
16dd
16ff
16aa
16gg#
16aa
16ee
16cc#
16a
16e
16c#
4A
8ee
=41
{8a
8cc#}
8ee
{8g
8a}
8b-
8c#
{16e
16d
16c#
16Bn}
{8A
8c#}
8e
=42
16g
16a
16b-
16a
16g
16b-
16ee
16dd
16cc#
16bn
16a
16g
16f
16e
16f
16g
16a
16f
8.d
16dd
16ccn
16b-
=43
16a
{16cc
16b-
16a
16g
16f#}
16ee-
16dd
16cc
16b-
16a
16g
16f
{16a
16g
16f
16en
16d}
16aa
16gg
16ff#
16een
16dd
16cc
=44
16b-
{16dd
16cc
16b-
16a
16g}
16ccc
16bb-
16aa
16gg
16ff#
16ee
{16dd
16ee
16ff}
16aa
16gg
16ffn
16ee-
16dd
16cc
16b-
16a
16g
=45
{16f#
16a
16dd}
16ff#
16aa
16ccc
{16dd
16cc
16dd}
16ccc
16dd
16ccc
{16g
16b-
16dd}
16ff#
16gg
16bb-
{16dd
16cc
16dd}
16bb-
16dd
16bb-
=46
{16f#
16a
16dd}
16ff#
16aa
16ccc
{16dd
16cc
16dd}
16ccc
16dd
16ccc
{16g
16b-
16dd}
16ff#
16gg
16bb-
{16dd
16cc
16dd}
16bb-
16dd
16bb-
=47
{16c
16e-
16g}
16b-
16cc
16ee-
{16fn
16e-
16f}
16ee-
16f
16ee-
{16B-
16d
16f}
16a
16b-
16dd
{16e-
16d
16e-}
16dd
16e-
16dd
=48
{16A
16c
16e-}
16g
16a
16cc
{16d
16c
16d}
16cc
16d
16cc
{16G
16B-
16d}
16f#
16g
16b-
{16d
16f#
16g}
16b-
16dd
16gg
=49
16ee-
16dd
16ee-
16ff
16gg
16ee-
16cc
16b-
16cc
16dd
16ee-
16cc
16a
16g
16a
16b-
16cc
16a
16f#
16a
16dd
16ff#
16aa
16ccc
=50
{16bb-
16aa}
{16ccc
16bb-
16aa
16gg}
16dd
16gg
16ff#
16gg
16aa
16ff#
16gg
{16ee-
16dd
16cc
16b-
16a}
16b-
16g
16a
16b-
16cc
16dd
=51
{16een
16ffn
16gg}
16ee
16b-
16ee
{16c
16e
16g}
16b-
16a
16g
{16a
16b-
16cc}
16a
16f
16a
{16B-
16d
16f}
16a
16f
16d
=52
{16cc#
16dd
16ee}
16cc#
16g
16cc#
{16A
16c#
16e}
16g
16f
16e
16f
16d
16f
16a
16dd
16cc#
16dd
16a
16dd
16ff
16aa
16ccn
=53
16b-
{16aa
16gg
16ff
16ee
16dd}
16cc
16dd
16ee
16ff
16gg
16b-
16a
{16gg
16ff
16ee
16dd
16cc}
16b-
16cc
16dd
16ee
16ff
16a
=54
16g
{16ff
16ee
16dd
16cc#
16bn}
16a
16b
16cc#
16dd
16ee
16g
16f
16a
16dd
16a
16f
16a
16d
16f
16a
16f
16d
16f
=55
{16B-
16f
16dd}
16ff
16ee
16cc#
{16A
16f
16dd}
16ff
16ee
16cc#
{16G
16f
16dd}
16ff
16ee
16dd
16bb-
{16aa
16gg
16ff
16ee
16dd}
=56
16cc#
16ee
16ff
16gg
16aa
16ee
{16dd
16cc#
16bn
16a}
{16ee
16g}
{16f
16g
16a}
16f
16dd
16f
{16e
16f
16g}
16e
16ccn
16e
=57
{16d
16e
16f}
16d
16b-
16d
{16c
16d
16e}
16c
16a
16c
{16B-
16c
16d}
16B-
16g
16d
{16g
16a
16b-}
16g
16ee-
16g
=58
{16A
16Bn
16c#}
16A
16g
16A
{16g
16a
16b-}
16g
16cc#
16g
{16f
16g
16a}
16f
16dd
16a
{16dd
16ee
16ff}
16dd
16bbn
16dd
=59
16g#
16a
16bn
16cc#
16dd
16ee
{16ff
16ee
16dd
16cc#
16dd}
16g#
16a
16cc#
16dd
16ee
16ff
16ggn
16aa
16bb-
{16ee
16ff
16gg}
16cc#
=60
16dd
16d
16f
16a
16dd
16ee
16ff
16dd
16ff
16aa
16ddd
16ccc#
16ddd
16aa
16ff
16dd
16a
16f
4d
8ee
=61
{8a
8cc#}
8ee
{8g
8a}
8b-
8c#
{16e
16d
16c#
16Bn}
{8A
8c#}
8e
=62
16g
16a
16b-
16a
16g
16b-
16ee
16dd
16cc#
16bn
16a
16g
16f
16e
16f
16g
16a
16f
8.d
16dd
16ccn
16b-
=63
16a
{16cc
16b-
16a
16g
16f#}
16ee-
16dd
16cc
16b-
16a
16g
16f
{16a
16g
16f
16en
16d}
16aa
16gg
16ff#
16een
16dd
16cc
=64
16b-
{16dd
16cc
16b-
16a
16g}
16ccc
16bb-
16aa
16gg
16ff#
16ee
{16dd
16ee
16ff}
16aa
16gg
16ffn
16ee-
16dd
16cc
16b-
16a
16g
=65
{16f#
16a
16dd}
16ff#
16aa
16ccc
{16dd
16cc
16dd}
16ccc
16dd
16ccc
{16g
16b-
16dd}
16ff#
16gg
16bb-
{16dd
16cc
16dd}
16bb-
16dd
16bb-
=66
{16f#
16a
16dd}
16ff#
16aa
16ccc
{16dd
16cc
16dd}
16ccc
16dd
16ccc
{16g
16b-
16dd}
16ff#
16gg
16bb-
{16dd
16cc
16dd}
16bb-
16dd
16bb-
=67
{16c
16e-
16g}
16b-
16cc
16ee-
{16fn
16e-
16f}
16ee-
16f
16ee-
{16B-
16d
16f}
16a
16b-
16dd
{16e-
16d
16e-}
16dd
16e-
16dd
=68
{16A
16c
16e-}
16g
16a
16cc
{16d
16c
16d}
16cc
16d
16cc
{16G
16B-
16d}
16f#
16g
16b-
{16d
16f#
16g}
16b-
16dd
16gg
=69
16ee-
16dd
16ee-
16ff
16gg
16ee-
16cc
16b-
16cc
16dd
16ee-
16cc
16a
16g
16a
16b-
16cc
16a
16f#
16a
16dd
16ff#
16aa
16ccc
=70
{16bb-
16aa}
{16ccc
16bb-
16aa
16gg}
16dd
16gg
16ff#
16gg
16aa
16ff#
16gg
{16ee-
16dd
16cc
16b-
16a}
16b-
16g
16a
16b-
16cc
16dd
=71
{16een
16ffn
16gg}
16ee
16b-
16ee
{16c
16e
16g}
16b-
16a
16g
{16a
16b-
16cc}
16a
16f
16a
{16B-
16d
16f}
16a
16f
16d
=72
{16cc#
16dd
16ee}
16cc#
16g
16cc#
{16A
16c#
16e}
16g
16f
16e
16f
16d
16f
16a
16dd
16cc#
16dd
16a
16dd
16ff
16aa
16ccn
=73
16b-
{16aa
16gg
16ff
16ee
16dd}
16cc
16dd
16ee
16ff
16gg
16b-
16a
{16gg
16ff
16ee
16dd
16cc}
16b-
16cc
16dd
16ee
16ff
16a
=74
16g
{16ff
16ee
16dd
16cc#
16bn}
16a
16b
16cc#
16dd
16ee
16g
16f
16a
16dd
16a
16f
16a
16d
16f
16a
16f
16d
16f
=75
{16B-
16f
16dd}
16ff
16ee
16cc#
{16A
16f
16dd}
16ff
16ee
16cc#
{16G
16f
16dd}
16ff
16ee
16dd
16bb-
{16aa
16gg
16ff
16ee
16dd}
=76
16cc#
16ee
16ff
16gg
16aa
16ee
{16dd
16cc#
16bn
16a}
{16ee
16g}
{16f
16g
16a}
16f
16dd
16f
{16e
16f
16g}
16e
16ccn
16e
=77
{16d
16e
16f}
16d
16b-
16d
{16c
16d
16e}
16c
16a
16c
{16B-
16c
16d}
16B-
16g
16d
{16g
16a
16b-}
16g
16ee-
16g
=78
{16A
16Bn
16c#}
16A
16g
16A
{16g
16a
16b-}
16g
16cc#
16g
{16f
16g
16a}
16f
16dd
16a
{16dd
16ee
16ff}
16dd
16bbn
16dd
=79
16g#
16a
16bn
16cc#
16dd
16ee
{16ff
16ee
16dd
16cc#
16dd}
16g#
16a
16cc#
16dd
16ee
16ff
16ggn
16aa
16bb-
{16ee
16ff
16gg}
16cc#
=80
16dd
16d
16f
16a
16dd
16ee
16ff
16dd
16ff
16aa
16ddd
16ccc#
16ddd
16aa
16ff
16dd
16a
16f
4d
==
*-
